X:1
T:Gloucester, LM
T:Gloucester, LM
T:Edward Hodges, 1841
T:Public Domain Courtesy of the Cyber Hymnal™
C:Edward Hodges, 1841
Z:Public Domain
Z:Courtesy of the Cyber Hymnal™
%%score ( 1 2 ) ( 3 4 )
L:1/8
Q:1/4=107
M:4/4
K:F
V:1 treble 
V:2 treble 
V:3 bass 
V:4 bass 
V:1
 F2 [FA]2 [FA]2 | [EG]2 F2 [CE]2 F2 | [EG]2 [FA]2 (cB) [FA]2 | [Fd]2 c2 [Fc]2 [F=B]2 | %4
 !fermata![Ec]2 [FA]2 [FA]2 [EA]2 | d2 [Fc]2 [CE]2 F2 | [EG]2 [FA]2 (cB) [FA]2 | %7
 [Fd]2 ([Fc][GB]) [FA]2 [EG]2 | !fermata!F2 |] %9
V:2
 F2 x4 | x2 F2 (CE) x2 | x4 E2 x2 | x2 (FE) x4 | x8 | (DE) x3 (CE) x | x4 E2 x2 | x8 | F2 |] %9
V:3
 [F,A,]2 C2 C2 | C2 [A,C]2 [G,B,]2 [F,A,]2 | [C,G,]2 F,2 [C,G,]2 [D,F,]2 | %3
 [B,,B,]2 (A,G,) (F,A,) (G,F,) | !fermata![C,G,]2 F,2 [D,F,]2 [C,A,]2 | %5
 [B,,B,]2 [A,,C]2 [G,,B,]2 [F,,A,]2 | [C,G,]2 F,2 [C,G,]2 [D,F,]2 | %7
 [B,,B,]2 ([A,,C][B,,D]) [C,C]2 [C,B,]2 | !fermata![F,,A,]2 |] %9
V:4
 x2 (F,G,) (A,B,) | (CB,) x6 | x2 F,2 x4 | x2 C,2 D,2 D,2 | x2 (F,E,) x4 | x8 | x2 F,2 x4 | x8 | %8
 x2 |] %9

